svgs/sharp-regular/jet-fighter.svg

<svg xmlns="http://www.w3.org/2000/svg" viewBox="0 0 640 512"><!--! Font Awesome Pro 6.6.0 by @fontawesome - https://fontawesome.com License - https://fontawesome.com/license (Commercial License) Copyright 2024 Fonticons, Inc. --><path d="M160 0l24 0L296 0l24 0 0 48-24 0-3.1 0 11.7 16.1L386 176l102 0 3.7 0 3.5 1.1 128 40 16.8 5.3 0 17.6 0 32 0 17.6-16.8 5.3-128 40-3.5 1.1-3.7 0-102 0L292.9 464l3.1 0 24 0 0 48-24 0-112 0-24 0 0-48 24 0 8 0 0-128-14.1 0-41 41-7 7-9.9 0-64 0-24 0 0-24 0-80-8 0L0 280l0-48 24 0 8 0 0-80 0-24 24 0 64 0 9.9 0 7 7 41 41 14.1 0 0-128-8 0-24 0 0-48zm80 176l86.7 0L265.8 92.3 240 56.8 240 176zM80 280l0 56 30.1 0 41-41 7-7 9.9 0 316.3 0 102.4-32L484.3 224 168 224l-9.9 0-7-7-41-41L80 176l0 56 24 0 24 0 0 48-24 0-24 0zm160 56l0 119.2L326.7 336 240 336z"/></svg>

<svg xmlns="http://www.w3.org/2000/svg" viewBox="0 0 640 512"><!--! Font Awesome Pro 6.4.2 by @fontawesome - https://fontawesome.com License - https://fontawesome.com/license (Commercial License) Copyright 2023 Fonticons, Inc. --><path d="M160 0h24H296h24V48H296h-3.1l11.7 16.1L386 176H488h3.7l3.5 1.1 128 40 16.8 5.3V240v32 17.6l-16.8 5.3-128 40-3.5 1.1H488 386L292.9 464H296h24v48H296 184 160V464h24 8V336H177.9l-41 41-7 7H120 56 32V360 280H24 0V232H24h8V152 128H56h64 9.9l7 7 41 41H192V48h-8H160V0zm80 176h86.7L265.8 92.3 240 56.8V176zM80 280v56h30.1l41-41 7-7H168 484.3l102.4-32L484.3 224H168h-9.9l-7-7-41-41H80v56h24 24v48H104 80zm160 56V455.2L326.7 336H240z"/></svg>
